X:84
T: ES WAREN ZWEI VERLIEBTE IN DEM MAILAND
N: E0049C
O: Europa, Mitteleuropa, Deutschland, Westfalen
R: erzaehlendes Volks - Lied, Sage, Mord
M: 4/4
L: 1/8
K: G
GA | B2B2B2AB | c2A2z2
AB | c2c2cedc | d2B2z2
GB | d2ddcBAG | e2e2e2
ge | d2ddd2Ac | B4z2
GB | d2ddcBAG | e2e2e2
ge | d2ddd2Ac | B4z2

@@@ Tune index: 3734
